assets/icons/tag-filled.svg

<?xml version="1.0" encoding="UTF-8" standalone="no"?>
<svg viewBox="0 0 24 24" height="24" id="svg7384" version="1.1" width="24" sodipodi:docname="tag-filled.svg" inkscape:version="1.1 (ce6663b3b7, 2021-05-25)"
   xmlns:inkscape="http://www.inkscape.org/namespaces/inkscape"
   xmlns:sodipodi="http://sodipodi.sourceforge.net/DTD/sodipodi-0.dtd"
   xmlns="http://www.w3.org/2000/svg"
   xmlns:svg="http://www.w3.org/2000/svg"
   xmlns:rdf="http://www.w3.org/1999/02/22-rdf-syntax-ns#"
   xmlns:cc="http://creativecommons.org/ns#"
   xmlns:dc="http://purl.org/dc/elements/1.1/">
   <sodipodi:namedview id="namedview21" pagecolor="#ffffff" bordercolor="#666666" borderopacity="1.0" inkscape:pageshadow="2" inkscape:pageopacity="0.0" inkscape:pagecheckerboard="0" showgrid="false" inkscape:zoom="27.999132" inkscape:cx="6.8394977" inkscape:cy="9.5181522" inkscape:window-width="1920" inkscape:window-height="1016" inkscape:window-x="0" inkscape:window-y="27" inkscape:window-maximized="1" inkscape:current-layer="svg7384" />
   <metadata id="metadata20854">
      <rdf:RDF>
         <cc:Work rdf:about="">
            <dc:format>image/svg+xml</dc:format>
            <dc:type rdf:resource="http://purl.org/dc/dcmitype/StillImage" />
         </cc:Work>
      </rdf:RDF>
   </metadata>
   <defs id="defs7386">
      <linearGradient id="linearGradient5606" inkscape:swatch="solid">
         <stop id="stop5608" offset="0" style="stop-color:#000000;stop-opacity:1;" />
      </linearGradient>
      <linearGradient id="linearGradient4526" inkscape:swatch="solid">
         <stop id="stop4528" offset="0" style="stop-color:#ffffff;stop-opacity:1;" />
      </linearGradient>
      <linearGradient id="linearGradient3600-4" inkscape:swatch="gradient">
         <stop id="stop3602-7" offset="0" style="stop-color:#f4f4f4;stop-opacity:1" />
         <stop id="stop3604-6" offset="1" style="stop-color:#dbdbdb;stop-opacity:1" />
      </linearGradient>
   </defs>
   <path id="path874" style="color:#000000;fill:#808080;stroke-linejoin:round;-inkscape-stroke:none" d="M 5.5 2 C 4.416668 2 3.5143344 2.2786339 2.8964844 2.8964844 C 2.2786334 3.5143349 2 4.4166677 2 5.5 L 2 9.5 C 2 10.499999 1.9931098 11.1034 2.3027344 11.722656 C 2.6123624 12.341913 3.1464854 12.853517 4.1464844 13.853516 L 10.146484 19.853516 C 10.935767 20.642799 11.675001 21.125 12.5 21.125 C 13.324999 21.125 14.064233 20.642799 14.853516 19.853516 L 19.853516 14.853516 C 20.642799 14.064233 21.125 13.324999 21.125 12.5 C 21.125 11.675001 20.642799 10.935767 19.853516 10.146484 L 13.853516 4.1464844 C 12.853517 3.1464854 12.341913 2.6123625 11.722656 2.3027344 C 11.1034 1.9931062 10.499999 2 9.5 2 L 5.5 2 z M 6.5 5 A 1.5 1.5 0 0 1 8 6.5 A 1.5 1.5 0 0 1 6.5 8 A 1.5 1.5 0 0 1 5 6.5 A 1.5 1.5 0 0 1 6.5 5 z " />
   <g id="layer9" label="status" style="display:inline;stroke-width:0.800022" transform="matrix(1.2499661,0,0,1.2499661,-739.217,-139.24596)" />
   <g id="layer2" style="display:inline;stroke-width:0.800022" transform="matrix(1.2499661,0,0,1.2499661,-437.97493,-597.98351)" />
   <g id="layer4" style="display:inline;stroke-width:0.800022" transform="matrix(1.2499661,0,0,1.2499661,-437.97493,-597.98351)" />
   <g id="g1812" style="display:inline;stroke-width:0.800022" transform="matrix(1.2499661,0,0,1.2499661,-437.97493,-597.98351)" />
   <g id="g6217" style="display:inline;stroke-width:0.800022" transform="matrix(1.2499661,0,0,1.2499661,-437.97493,-597.98351)" />
   <g id="layer3" style="display:inline;stroke-width:0.800022" transform="matrix(1.2499661,0,0,1.2499661,-437.97493,-597.98351)" />
   <g id="g1833" style="display:inline;stroke-width:0.800022" transform="matrix(1.2499661,0,0,1.2499661,-437.97493,-597.98351)" />
   <g id="layer1" style="display:inline;stroke-width:0.800022" transform="matrix(1.2499661,0,0,1.2499661,-437.97493,-597.98351)" />
</svg>

<svg height="24" width="24" xmlns="http://www.w3.org/2000/svg"><path style="color:#000;fill:gray;stroke-linejoin:round;-inkscape-stroke:none" d="M5.5 2c-1.083 0-1.986.279-2.604.896C2.28 3.514 2 4.416 2 5.5v4c0 1-.007 1.603.303 2.223.31.619.843 1.13 1.843 2.13l6 6c.79.79 1.529 1.272 2.354 1.272.825 0 1.564-.482 2.354-1.271l5-5c.789-.79 1.271-1.529 1.271-2.354 0-.825-.482-1.564-1.271-2.354l-6-6c-1-1-1.512-1.534-2.131-1.843C11.103 1.993 10.5 2 9.5 2h-4zm1 3A1.5 1.5 0 0 1 8 6.5 1.5 1.5 0 0 1 6.5 8 1.5 1.5 0 0 1 5 6.5 1.5 1.5 0 0 1 6.5 5z"/></svg>
